src/resources/star.svg

<svg fill="none" height="19" viewBox="0 0 20 19" width="20" xmlns="http://www.w3.org/2000/svg"><path d="m10 0 3.5267 5.1459 5.9839 1.76393-3.8043 4.94427.1716 6.2361-5.8779-2.0902-5.87785 2.0902.17151-6.2361-3.804225-4.94427 5.983855-1.76393z" fill="#f9c304"/></svg>

<svg width="20" height="19" viewBox="0 0 20 19" fill="none" xmlns="http://www.w3.org/2000/svg">
<path id="Star" d="M10 0L13.5267 5.1459L19.5106 6.90983L15.7063 11.8541L15.8779 18.0902L10 16L4.12215 18.0902L4.29366 11.8541L0.489435 6.90983L6.47329 5.1459L10 0Z" fill="#F9C304"/>
</svg>
